X:1
T:Title
%%score { ( 1 3 ) | 2 }
L:1/8
M:4/4
K:F
V:1 treble nm="Grand Piano"
V:3 treble 
V:2 bass 
V:1
 z4 z2[Q:1/4=100] [A,FA]2 | [A,FA][A,FA] [A,FA]4 [A,FA][A,FA] | [EB]3 [EB] [FA]2 z [^CA] | %3
 [Dd][Fd] [Fd]4 DE |[M:7/8] F2 D2 [^CA]3 |[M:1/4] [A,FA]2 | %6
[M:4/4] [A,FA]2 [A,EG][A,DF] [A,^CE]2 [A,CE][A,CE] | %7
[M:19/16] [A,DF]-<[A,DF][DEG]-<[DEG][^CEA]/-[CEA]/-[CEA]/-[CEA]/-[CEA]/-[CEA]-<[CEA]A | %8
[M:4/4] B2 BB A2 DE |[M:7/8] F2 z D [^CA]3 |[M:1/4] A2 |[M:4/4] A2 GF c2 [Fc][E^c] | %12
 [Dd]2 [Fd]2 [Ec]2 [GB]2 | [FA][FA] [GA]2 [Fd]2 [Dc][CB] |[M:7/8] [DA]2 [^CA]2 D3 |] %15
V:2
 z4 z2 D,2 | D,D, D,4 D,D, | [^C,G,]3 [C,G,] [C,A,]2 z [E,G,] | [D,F,][D,A,] [E,A,]4 D,E, | %4
[M:7/8] F,2 D,2 [A,,E,A,]3 |[M:1/4] D,2 |[M:4/4] D,2 D,D, A,,2 A,,A,, | %7
[M:19/16] D,-<D,B,,-<B,,A,,/-A,,/-A,,/-A,,/-A,,/-A,,-<A,,[A,^CE] | %8
[M:4/4] [G,DE]2 [G,^CE][G,CE] [F,DF]2 [F,A,][E,A,C] |[M:7/8] [D,A,D]2 [B,,_A,]2 [A,,=A,]3 | %10
[M:1/4] [F,CF]2 |[M:4/4] [F,DF]2 [F,B,C][F,A,C] [F,A,F]2 [A,,F,][A,,G,] | %12
 [B,,F,]2 [=B,,G,]2 [C,G,]2 [C,C]2 | [F,C][F,C] [E,^C]2 [D,A,]2 [G,,A,][G,,G,] | %14
[M:7/8] [A,,F,]2 [A,,G,]2 [D,F,]3 |] %15
V:3
 x8 | x8 | x8 | x8 |[M:7/8] x7 |[M:1/4] x2 |[M:4/4] x8 |[M:19/16] x19/2 |[M:4/4] x8 | %9
[M:7/8] z2 E2 z z2 |[M:1/4] x2 |[M:4/4] x8 | x8 | x8 |[M:7/8] x7 |] %15

